public/topics/27.svg

<svg width="250" height="250" viewBox="0 0 250 250" fill="none" xmlns="http://www.w3.org/2000/svg">
<rect width="250" height="250" rx="30" fill="#009966"/>
<path d="M61.2 174.2C65.7333 174.467 68.7333 174.6 70.2 174.6C74.7333 174.6 78.7333 174.533 82.2 174.4C85.8 174.267 88.8667 174.133 91.4 174C97.9333 173.6 103.8 173.4 109 173.4C114.067 173.4 117.8 174.733 120.2 177.4C122.6 180.067 123.8 183.6 123.8 188C123.8 190.133 122.4 191.867 119.6 193.2C116.8 194.4 113.933 195 111 195C108.467 195 103.2 194.733 95.2 194.2C85.6 193.4 78.0667 193 72.6 193C69.6667 193 66.2 193.2 62.2 193.6C60.6 193.733 58.6667 193.867 56.4 194C54.1333 194.133 51.6 194.2 48.8 194.2C43.4667 194.2 39.4 193.467 36.6 192C33.8 190.533 32.4 187.867 32.4 184C32.4 180.667 33.7333 177.267 36.4 173.8C39.0667 170.333 42.8 166.2 47.6 161.4L52.4 156.6C54.5333 154.333 58.4667 150.467 64.2 145C73.6667 136.467 81 128.933 86.2 122.4C91.5333 115.867 94.2 109.4 94.2 103C94.2 98.8667 92.2 95.5333 88.2 93C84.3333 90.3333 79.8667 89 74.8 89C67.0667 89 61.4667 90.7333 58 94.2C54.6667 97.5333 53 102.4 53 108.8C53 110.4 52.0667 111.867 50.2 113.2C48.4667 114.4 46.2667 115 43.6 115C39.8667 115 37.2667 113.667 35.8 111C34.3333 108.333 33.6 105.067 33.6 101.2C33.6 95.0667 35.4667 89.6667 39.2 85C42.9333 80.2 48 76.4667 54.4 73.8C60.9333 71.1333 68.1333 69.8 76 69.8C81.6 69.8 87.4 71.2 93.4 74C99.5333 76.6667 104.6 80.3333 108.6 85C112.733 89.5333 114.8 94.5333 114.8 100C114.8 108.267 112.733 116.133 108.6 123.6C104.467 131.067 99.6 137.733 94 143.6C88.5333 149.333 81.4 156.133 72.6 164C68.3333 167.6 64.5333 171 61.2 174.2ZM222.873 78.2C221.14 86.3333 218.94 94.4 216.273 102.4C213.74 110.4 210.473 119.6 206.473 130C199.673 148.267 194.873 163 192.073 174.2C189.807 181.8 187.673 187.267 185.673 190.6C183.673 193.933 181.34 195.6 178.673 195.6C176.54 195.6 173.673 194.333 170.073 191.8C169.14 190.6 168.673 188.933 168.673 186.8C168.673 185.067 169.14 182.533 170.073 179.2C171.007 175.733 172.14 171.933 173.473 167.8L175.873 160.6C177.607 154.867 180.54 147.133 184.673 137.4C187.74 129.933 190.473 122.733 192.873 115.8C195.407 108.867 197.873 100.6 200.273 91C193.34 93.1333 186.473 94.2 179.673 94.2C176.34 94.2 171.273 93.7333 164.473 92.8C158.873 92 154.873 91.6 152.473 91.6C152.607 93.6 153.607 97.4 155.473 103C157.74 108.733 158.873 113.067 158.873 116C158.873 117.733 158.273 119.2 157.073 120.4C155.873 121.6 153.94 122.2 151.273 122.2C147.807 122.2 145.14 121.133 143.273 119C141.54 116.733 140.073 114.2 138.873 111.4C137.807 108.467 137.007 106.467 136.473 105.4C134.607 101.133 133.14 96.7333 132.073 92.2C131.007 87.5333 130.473 83.4 130.473 79.8C130.473 77.6667 131.007 75.8 132.073 74.2C133.273 72.6 134.607 71.8 136.073 71.8C138.073 72.0667 141.073 72.6 145.073 73.4C151.473 74.4667 156.807 75.3333 161.073 76C165.473 76.5333 170.14 76.8 175.073 76.8C187.207 76.8 196.54 74.6667 203.073 70.4C204.007 69.8667 205.407 69.6 207.273 69.6C210.74 69.6 214.207 70.4667 217.673 72.2C221.14 73.8 222.873 75.8 222.873 78.2Z" fill="white"/>
</svg>

<svg xmlns="http://www.w3.org/2000/svg" width="250" height="250" fill="none" viewBox="0 0 250 250"><rect width="250" height="250" fill="#096" rx="30"/><path fill="#fff" d="M61.2 174.2q6.8.4 9 .4 6.8 0 12-.2 5.4-.2 9.2-.4 9.8-.6 17.6-.6 7.6 0 11.2 4t3.6 10.6q0 3.2-4.2 5.2-4.2 1.8-8.6 1.8-3.8 0-15.8-.8-14.4-1.2-22.6-1.2-4.4 0-10.4.6-2.4.2-5.8.4t-7.6.2q-8 0-12.2-2.2t-4.2-8q0-5 4-10.2t11.2-12.4l4.8-4.8q3.2-3.4 11.8-11.6 14.2-12.8 22-22.6 8-9.8 8-19.4 0-6.2-6-10-5.8-4-13.4-4-11.6 0-16.8 5.2-5 5-5 14.6 0 2.4-2.8 4.4-2.6 1.8-6.6 1.8-5.6 0-7.8-4t-2.2-9.8q0-9.2 5.6-16.2 5.6-7.2 15.2-11.2 9.8-4 21.6-4 8.4 0 17.4 4.2 9.2 4 15.2 11 6.2 6.8 6.2 15 0 12.4-6.2 23.6t-14.6 20q-8.2 8.6-21.4 20.4-6.4 5.4-11.4 10.2m161.673-96a224 224 0 0 1-6.6 24.2q-3.8 12-9.8 27.6-10.2 27.4-14.4 44.2-3.4 11.4-6.4 16.4t-7 5q-3.2 0-8.6-3.8-1.4-1.8-1.4-5 0-2.6 1.4-7.6 1.4-5.2 3.4-11.4l2.4-7.2q2.6-8.6 8.8-23.2 4.6-11.2 8.2-21.6 3.8-10.4 7.4-24.8-10.4 3.2-20.6 3.2-5 0-15.2-1.4-8.4-1.2-12-1.2.201 3 3 11.4 3.4 8.6 3.4 13 0 2.6-1.8 4.4t-5.8 1.8q-5.2 0-8-3.2-2.6-3.4-4.4-7.6-1.599-4.4-2.4-6a77 77 0 0 1-4.4-13.2q-1.6-7-1.6-12.4 0-3.2 1.6-5.6 1.8-2.4 4-2.4 3 .4 9 1.6 9.6 1.6 16 2.6 6.6.8 14 .8 18.2 0 28-6.4 1.401-.8 4.2-.8 5.2 0 10.4 2.6 5.2 2.4 5.2 6"/></svg>
